packages/kaspersky-hexa-ui-icons/src/iconsSVGs/16x12/FlagGb.svg

<svg width="16" height="12" viewBox="0 0 16 12" fill="none" xmlns="http://www.w3.org/2000/svg">
<g clip-path="url(#clip0_41813_2479)">
<mask id="mask0_41813_2479" style="mask-type:luminance" maskUnits="userSpaceOnUse" x="0" y="0" width="16" height="12">
<rect width="16" height="12" rx="2" fill="white"/>
</mask>
<g mask="url(#mask0_41813_2479)">
<rect width="16" height="12" fill="#0A17A7"/>
<path d="M17.5847 0.176331L12.1863 3.99957H15.9998V7.99957H12.1853L17.5847 11.8238L16.7332 13.15L9.90503 8.31403V12.8004H6.09546V8.31305L-0.732666 13.15L-1.58521 11.8238L3.81421 7.99957H-0.000244141V3.99957H3.81323L-1.58521 0.176331L-0.732666 -1.14984L6.09546 3.6861V-0.800232H9.90503V3.68512L16.7332 -1.14984L17.5847 0.176331Z" fill="white"/>
<path d="M10.6674 3.7993L17.9047 -1.20001" stroke="#DB1F35" stroke-width="0.5" stroke-linecap="round"/>
<path d="M11.4359 8.21851L17.9238 12.8102" stroke="#DB1F35" stroke-width="0.5" stroke-linecap="round"/>
<path d="M4.57457 3.78627L-2.19287 -1.00259" stroke="#DB1F35" stroke-width="0.5" stroke-linecap="round"/>
<path d="M5.30857 8.16295L-2.19287 13.3863" stroke="#DB1F35" stroke-width="0.5" stroke-linecap="round"/>
<path fill-rule="evenodd" clip-rule="evenodd" d="M0 7.2H6.85714V12H9.14286V7.2H16V4.8H9.14286V0H6.85714V4.8H0V7.2Z" fill="#E6273E"/>
</g>
</g>
<defs>
<clipPath id="clip0_41813_2479">
<rect width="16" height="12" fill="white"/>
</clipPath>
</defs>
</svg>

<svg xmlns="http://www.w3.org/2000/svg" width="16" height="12" fill="none" viewBox="0 0 16 12"><g clip-path="url(#a)"><mask id="b" width="16" height="12" x="0" y="0" maskUnits="userSpaceOnUse" style="mask-type:luminance"><rect width="16" height="12" fill="#fff" rx="2"/></mask><g mask="url(#b)"><path fill="#0a17a7" d="M0 0h16v12H0z"/><path fill="#fff" d="m17.5847.1763-5.3984 3.8233h3.8135v4h-3.8145l5.3994 3.8242-.8515 1.3262L9.905 8.314v4.4864H6.0955V8.3131L-.7327 13.15l-.8525-1.3262 5.3994-3.8242H-.0002v-4h3.8134L-1.5852.1763l.8525-1.3261L6.0955 3.686V-.8002H9.905V3.685l6.8282-4.835z"/><path stroke="#db1f35" stroke-linecap="round" d="M10.667 3.799 17.905-1.2m-6.469 9.419 6.488 4.592M4.575 3.786l-6.768-4.789m7.502 9.166-7.501 5.223"/><path fill="#e6273e" fill-rule="evenodd" d="M0 7.2h6.8571V12H9.143V7.2H16V4.8H9.1429V0H6.857v4.8H0z" clip-rule="evenodd"/></g></g><defs><clipPath id="a"><path fill="#fff" d="M0 0h16v12H0z"/></clipPath></defs></svg>
